X:1
T:Title
%%score { ( 1 3 ) | ( 2 4 ) }
L:1/8
M:4/4
K:Db
V:1 treble nm="Grand Piano"
V:3 treble 
V:2 bass 
V:4 bass 
V:1
 z4 z[Q:1/4=100] [FA][GB][Gc] | [Fd]3 [Ac] BG d>B | [FA]6 z2 | G3 [CB] [FA]2 [EG]2 | %4
 [DF]4 z [FA][GB][Gc] | [Fd]3 [Ac] BG d>B | [FA]4- [FA][FA][FB][F_c] | %7
 [Ec]3 [A,E] [A,=DF]2 [B,_D=G]2 |[M:3/4] [A,CA]6 |[M:1/4] [CEA]2 | %10
[M:4/4] [EGc]3 [CE] [CEG][CGB][CFA][A,EG] | [A,EG]>[A,DF] [A,DF]2 z2 [=A,EF]2 | %12
 [B,DB]3 [DFB] [=Gd][Gd][Gc][GB] | c>d e2 z2 AA | [Af]3 [Fd] [Gc][Ge][Fd][FA] | [Ac]>B B2- BdcB | %16
 A3 B c3 d |[M:5/8] d-[Fd-][Gd-] [Gd-][Fd] |] %18
V:2
 z4 z [D,D][G,D][E,A,] | [D,A,]3 [D,D] [G,DG][G,B,] [G,B,G]>[G,DG] | %2
 [D,D]4 D,[D,A,D][G,A,C][F,A,D] | [E,A,C]3 [A,,E,] [A,,A,]2 [A,,A,]2 | [D,A,]4 z [D,D][G,D][E,A,] | %5
 [D,A,]3 [D,D] [G,DG][G,B,] [G,B,G]>[G,DG] | [D,D]4- [D,D][D,D][D,D][D,A,] | [E,A,]3 C, B,,2 E,2 | %8
[M:3/4] A,,6 |[M:1/4] A,2 |[M:4/4] A,3 A, A,,A,,A,,A,, | D,>D, D,2 z2 C,2 | %12
 B,,3 B,, [E,B,][E,B,][E,E][E,E] | [A,EA]>[A,B,=G] [A,C_G]2 z2 .[A,CG]2 | %14
 [D,D]3 [D,A,] [E,A,][C,A,][D,A,][D,D] | %15
 [G,D]>[K:treble][G,DG] [G,DG]2- [G,DG][=G,B,_F][G,CF][G,DF] | [A,DF]3 [A,DF] [A,EG]3 [A,G] | %17
[M:5/8][K:bass] A,A,B, =A,_A, |] %18
V:3
 x8 | x8 | z4 DFEF | x8 | x8 | x8 | x8 | x8 |[M:3/4] x6 |[M:1/4] x2 |[M:4/4] x8 | x8 | x8 | x8 | %14
 x8 | x8 | x8 |[M:5/8] F z z z2 |] %18
V:4
 x8 | x8 | x8 | x8 | x8 | x8 | x8 | x8 |[M:3/4] x6 |[M:1/4] x2 |[M:4/4] x8 | x8 | x8 | x8 | x8 | %15
 x3/2[K:treble] x13/2 | x8 |[M:5/8][K:bass] D,-D,- D,3 |] %18

